src/assets/static/img/img-logo-dashboard.svg

<?xml version="1.0" encoding="UTF-8"?>
<svg width="230px" height="19px" viewBox="0 0 230 19" version="1.1" xmlns="http://www.w3.org/2000/svg" xmlns:xlink="http://www.w3.org/1999/xlink">
    <!-- Generator: Sketch 50.2 (55047) - http://www.bohemiancoding.com/sketch -->
    <title>Group</title>
    <desc>Created with Sketch.</desc>
    <defs></defs>
    <g id="Symbols" stroke="none" stroke-width="1" fill="none" fill-rule="evenodd">
        <g id="logged-out-top-bar-option-1" transform="translate(-20.000000, -21.000000)">
            <g id="Group" transform="translate(20.000000, 21.000000)">
                <text id="Lab" font-family="OpenSans, Open Sans" font-size="15" font-weight="normal" fill="#CCCCCC">
                    <tspan x="143" y="14">Dashboard</tspan>
                </text>
                <path d="M131.5,0.5 L131.5,17.5665928" id="Line" stroke="#585858" stroke-linecap="square"></path>
                <path d="M23.5195257,5.45414088 L23.5195257,15.4 L20.963004,15.4 L20.963004,13.7353259 C20.7092035,14.3187934 20.2752365,14.805792 19.724585,15.1250823 C19.1568379,15.4644635 18.5003953,15.634154 17.7562055,15.634154 C16.592253,15.634154 15.6896443,15.3056748 15.0469565,14.6458723 C14.4042688,13.9870178 14.0831621,13.0570375 14.0831621,11.8564055 L14.0831621,5.45414088 L16.7013439,5.45414088 L16.7013439,11.3079921 C16.7013439,12.1043055 16.8668775,12.7010665 17.198419,13.0992232 C17.5294862,13.4973799 18.0270356,13.6964582 18.6896443,13.6964582 C19.3930435,13.6964582 19.9375494,13.4509282 20.3231621,12.9617643 C20.7087747,12.4726004 20.9018182,11.7710862 20.9018182,10.8572219 L20.9018182,5.45461488 L23.5195257,5.45461488 L23.5195257,5.45414088 Z M33.3324901,6.30780777 C32.292332,6.30780777 31.446166,7.12402897 31.446166,8.12700461 C31.446166,9.13045425 32.292332,9.94667544 33.3324901,9.94667544 C34.3716996,9.94667544 35.2178656,9.13045425 35.2178656,8.12700461 C35.2178656,7.12402897 34.3716996,6.30780777 33.3324901,6.30780777 Z M26.7452964,14.4823436 L30.516996,14.4823436 L30.516996,6.30733377 L26.7452964,6.30733377 L26.7452964,14.4823436 Z M25.8156522,15.3781962 L25.8156522,15.3791442 L25.8156522,5.41195523 L36.1470356,5.41195523 L36.1470356,15.3781962 L25.8156522,15.3781962 Z M35.2178656,14.4823436 L35.2178656,10.1429098 C34.6956062,10.5978495 34.0253004,10.846921 33.3324901,10.843476 C32.6392226,10.8469333 31.9685108,10.5974989 31.446166,10.1419618 L31.446166,14.4823436 L35.2178656,14.4823436 Z M92.8875889,15.6938776 C91.3271146,15.6938776 90.0706719,15.2198815 89.1211067,14.2699934 C88.1701186,13.3201053 87.6958103,12.0531139 87.6958103,10.4685451 C87.6958103,8.89724819 88.1743874,7.63310072 89.1315415,6.67705069 C90.0882213,5.72147465 91.3403953,5.24321264 92.8880632,5.24321264 C94.1506719,5.24321264 95.1789723,5.56695194 95.9729644,6.21585253 C96.7669565,6.86333114 97.2393676,7.75776169 97.3887747,8.89724819 L94.9247431,8.89724819 C94.8156522,8.32086899 94.5851383,7.88194865 94.232253,7.58096116 C93.8788933,7.28044766 93.4240316,7.12924292 92.867668,7.12924292 C92.066087,7.12924292 91.4385771,7.42738644 90.984664,8.02319947 C90.5293281,8.61853851 90.3016601,9.43428571 90.3016601,10.4690191 C90.3016601,11.5165504 90.5293281,12.3351415 90.984664,12.9243186 C91.4385771,13.5130217 92.066087,13.8083213 92.867668,13.8083213 C93.4240316,13.8083213 93.8788933,13.6547465 94.232253,13.3461751 C94.5851383,13.0390257 94.8156522,12.6034233 94.9247431,12.040316 L97.3883004,12.040316 C97.2388933,13.1793285 96.7669565,14.0737591 95.9729644,14.7212377 C95.1794466,15.3691903 94.1506719,15.6938776 92.8885375,15.6938776 L92.8880632,15.6938776 L92.8875889,15.6938776 Z M43.0894862,7.10933509 C42.396996,7.10933509 41.8301976,7.30888743 41.3890909,7.7084661 C40.9479842,8.10804477 40.6586561,8.68774194 40.5234783,9.44708361 L45.3903557,9.44708361 C45.3903557,8.75315339 45.1835573,8.19004608 44.7690119,7.75728769 C44.3549407,7.32595128 43.7952569,7.10933509 43.0894862,7.10933509 Z M45.4098024,12.3545754 L47.8126482,12.3545754 C47.595415,13.3897828 47.0698814,14.204582 46.2350988,14.800395 C45.3998419,15.396208 44.3715415,15.6938776 43.149249,15.6938776 C41.5887747,15.6938776 40.326166,15.2198815 39.3618972,14.2699934 C38.3981028,13.3201053 37.9166798,12.0592758 37.9166798,10.4884529 C37.9166798,8.91668203 38.3981028,7.64921659 39.3618972,6.68700461 C40.326166,5.72431863 41.5674308,5.24321264 43.0885375,5.24321264 C44.5550988,5.24321264 45.7181028,5.70772877 46.5808696,6.63770902 C47.4426877,7.56816327 47.873834,8.77922317 47.873834,10.2718367 L47.873834,11.07763 L40.4414229,11.07763 C40.5220553,11.9687426 40.7947826,12.6522449 41.2558103,13.1300329 C41.7173123,13.6087689 42.3486166,13.8471889 43.1501976,13.8471889 C43.7193676,13.8471889 44.1950988,13.723002 44.5754941,13.4736801 C44.9549407,13.2253061 45.2333597,12.8527452 45.4102767,12.3545754 L45.4098024,12.3545754 Z M104.657549,14.561975 L104.657549,11.555892 L107.772332,14.561027 L104.657549,14.561027 L104.657549,14.561975 Z M104.657549,10.2884266 L104.657549,6.3874391 L108.429249,6.3874391 L108.429249,13.9277683 L104.657549,10.2884266 Z M99.9557312,14.561975 L99.9557312,6.3874391 L103.727905,6.3874391 L103.727905,14.561975 L99.9557312,14.561975 Z M99.026087,15.4578275 L109.358419,15.4578275 L109.358419,5.49063858 L99.0270356,5.49063858 L99.0270356,15.4587755 L99.026087,15.4587755 L99.026087,15.4578275 Z M80.7296443,7.10980908 C79.9010277,7.10980908 79.2564427,7.40416063 78.7944664,7.99428571 C78.333913,8.58298881 78.1029249,9.40821593 78.1029249,10.4694931 C78.1029249,11.5298223 78.333913,12.3550494 78.795415,12.9437525 C79.2564427,13.5338776 79.9010277,13.8282291 80.7296443,13.8282291 C81.5573123,13.8282291 82.2028458,13.5338776 82.6648221,12.9437525 C83.1258498,12.3550494 83.3563636,11.5298223 83.3563636,10.4694931 C83.3563636,9.42053983 83.1258498,8.59910467 82.6638735,8.00329164 C82.2028458,7.4074786 81.5573123,7.10980908 80.7296443,7.10980908 Z M80.7296443,5.24368664 C82.2910672,5.24368664 83.5532016,5.72194865 84.516996,6.67752469 C85.4812648,7.63357472 85.9631621,8.89772219 85.9631621,10.4694931 C85.9631621,12.0535879 85.4841107,13.3215273 84.5269565,14.2695194 C83.5698024,15.2198815 82.3043478,15.6938776 80.7296443,15.6938776 C79.1549407,15.6938776 77.8885375,15.2198815 76.932332,14.2699934 C75.9747036,13.3201053 75.4961265,12.0531139 75.4961265,10.4685451 C75.4961265,8.89724819 75.9780237,7.63310072 76.9422925,6.67705069 C77.906087,5.72147465 79.1682213,5.24321264 80.7296443,5.24321264 L80.7296443,5.24368664 Z M115.642055,15.6938776 C114.217233,15.6938776 113.079842,15.4094799 112.23083,14.8387887 C111.382767,14.2699934 110.90419,13.4675181 110.795573,12.4332587 L113.28,12.4332587 C113.334071,12.9039368 113.575494,13.2746017 114.002846,13.5424095 C114.430672,13.8116392 114.96332,13.9453061 115.601739,13.9453061 C116.185138,13.9453061 116.657075,13.834391 117.017075,13.6111389 C117.376126,13.3888348 117.556364,13.0878473 117.556364,12.7077024 C117.556364,12.3939171 117.437787,12.154549 117.200632,11.9910204 C116.962055,11.8274918 116.551779,11.6933509 115.967431,11.5881238 L114.135652,11.2743384 C113.131067,11.1036998 112.384032,10.7828045 111.895494,10.3111784 C111.406957,9.83955234 111.162688,9.21150757 111.162688,8.42562212 C111.162688,7.49611587 111.556364,6.73345622 112.343715,6.13669519 C113.130119,5.54088216 114.135652,5.24321264 115.356996,5.24321264 C116.673676,5.24321264 117.715731,5.50865043 118.483162,6.03857801 C119.249644,6.56897959 119.686957,7.32547729 119.796522,8.3075971 L117.414071,8.3075971 C117.36,7.91465438 117.148933,7.600395 116.783241,7.36434496 C116.416126,7.12924292 115.94751,7.01026991 115.377391,7.01026991 C114.834783,7.01026991 114.396522,7.11597103 114.064032,7.32547729 C113.731067,7.53498354 113.565059,7.8165372 113.565059,8.17013825 C113.565059,8.48392363 113.680316,8.72376564 113.911304,8.88729427 C114.142292,9.05082291 114.556364,9.18496379 115.153518,9.29019092 L117.169328,9.62388413 C118.106087,9.78077683 118.812332,10.1049901 119.287589,10.596524 C119.761897,11.0875839 120,11.7326926 120,12.5313759 C120,13.4608822 119.588775,14.2211718 118.767747,14.8103489 C117.946719,15.399526 116.905138,15.6938776 115.642055,15.6938776 Z M70.8379447,15.4583015 L73.4442688,15.4583015 L73.4442688,1 L70.8379447,1 L70.8379447,15.4583015 Z M63.4605534,7.08942725 C62.6452174,7.08942725 62.0067984,7.37429888 61.5457708,7.94404213 C61.0842688,8.51378539 60.8532806,9.29682686 60.8532806,10.2917446 L60.8532806,10.6458196 C60.8532806,11.6412113 61.0842688,12.4223568 61.5457708,12.9930481 C62.0067984,13.5627913 62.6452174,13.8476629 63.4605534,13.8476629 C64.287747,13.8476629 64.9394466,13.5466754 65.4156522,12.9432785 C65.8899605,12.3413035 66.1271146,11.5165504 66.1271146,10.4690191 C66.1271146,9.42006583 65.8899605,8.5962607 65.4147036,7.99381172 C64.9394466,7.39136274 64.287747,7.08990125 63.4596047,7.08990125 L63.4605534,7.08942725 Z M64.1928854,15.6938776 C63.4600791,15.6938776 62.7903557,15.5270309 62.1870356,15.1928637 C61.5822925,14.8591705 61.1449802,14.4169322 60.8732016,13.8670968 L60.8732016,15.4583015 L58.3071937,15.4583015 L58.3071937,1 L60.9144664,1 L60.9144664,7.10933509 C61.1852964,6.54622778 61.6164427,6.09403555 62.2074308,5.75370639 C62.7979447,5.41337722 63.4596047,5.24321264 64.1928854,5.24321264 C65.5498814,5.24321264 66.6498024,5.7281106 67.4912253,6.69648453 C68.3326482,7.66628045 68.7543083,8.92331797 68.7543083,10.4690191 C68.7543083,12.0137722 68.3326482,13.2712837 67.4912253,14.2406057 C66.6493281,15.2089796 65.5498814,15.6938776 64.1928854,15.6938776 Z M55.7772332,5.30198815 C55.926166,5.30198815 56.0689328,5.30862409 56.2041107,5.32189598 C56.3402372,5.33516787 56.4559684,5.35507571 56.55083,5.38067149 L56.55083,7.69851218 C56.3990514,7.67007242 56.2463241,7.65111257 56.0926482,7.63973667 C55.913215,7.62605392 55.7333137,7.61941286 55.5533597,7.61982883 C54.6701976,7.61982883 53.9649012,7.90801843 53.4350988,8.48439763 C52.9057708,9.06077683 52.6411067,9.84713627 52.6411067,10.842054 L52.6411067,15.4583015 L50.0347826,15.4583015 L50.0347826,5.47878868 L52.6007905,5.47878868 L52.6007905,7.71842001 C52.844585,6.95907834 53.2449012,6.36658328 53.8017391,5.94046083 C54.3585771,5.51481238 55.0164427,5.30198815 55.7772332,5.30198815 Z M6.39367589,15.6938776 C4.50687747,15.6938776 3,15.3042528 1.87351779,14.5250033 C0.746086957,13.7462278 0.121422925,12.643239 0,11.2150889 L2.60632411,11.2150889 C2.68790514,12.040316 3.0512253,12.6721527 3.69581028,13.1105991 C4.34039526,13.5499934 5.21264822,13.7689796 6.31304348,13.7689796 C7.23557312,13.7689796 7.97881423,13.5751152 8.54229249,13.1892824 C9.10529644,12.8029756 9.38750988,12.275418 9.38750988,11.6075576 C9.38750988,11.083792 9.20110672,10.6747334 8.82782609,10.3799078 C8.45407115,10.0855563 7.84648221,9.85898618 7.00505929,9.70209348 L4.33754941,9.23046741 C3.03367589,9.00816327 2.06371542,8.57919684 1.42529644,7.94404213 C0.787351779,7.30983542 0.467667984,6.46801843 0.467667984,5.41953917 C0.467667984,4.17577354 0.977549407,3.160474 1.99541502,2.37506254 C3.01328063,1.58917709 4.32332016,1.19623436 5.92600791,1.19623436 C7.6629249,1.19623436 9.03367589,1.55030941 10.0387352,2.25703752 C11.0433202,2.96518762 11.6134387,3.97337722 11.7490909,5.28255431 L9.20442688,5.28255431 C9.10956522,4.61469388 8.77280632,4.09092824 8.19652174,3.71078341 C7.61881423,3.33111257 6.86893281,3.14151415 5.94592885,3.14151415 C5.09075099,3.14151415 4.40205534,3.33774852 3.87889328,3.73021725 C3.35667984,4.12363397 3.09486166,4.63412772 3.09486166,5.26264648 C3.09486166,5.77361422 3.25802372,6.16323897 3.58339921,6.43152074 C3.90924901,6.6998025 4.52110672,6.91973667 5.4170751,7.09037525 L8.22687747,7.62030283 C9.51652174,7.85587887 10.4732016,8.28816327 11.0978656,8.91668203 C11.7220553,9.54520079 12.0350988,10.3898618 12.0350988,11.4506649 C12.0350988,12.6949045 11.5052964,13.7135221 10.446166,14.5055695 C9.38750988,15.2976169 8.03667984,15.6938776 6.39367589,15.6938776 Z" id="superblocks-logo-white" fill="#FFFFFF" fill-rule="nonzero"></path>
            </g>
        </g>
    </g>
</svg>

<?xml version="1.0" encoding="iso-8859-1"?>
<svg version="1.1" id="Layer_1" xmlns="http://www.w3.org/2000/svg" xmlns:xlink="http://www.w3.org/1999/xlink" x="0px" y="0px"
	 viewBox="0 0 230 19" width="230px" height="19px" style="enable-background:new 0 0 230 19;" xml:space="preserve">
<g id="Symbols">
	<g id="logged-out-top-bar-option-1" transform="translate(-20.000000, -21.000000)">
		<g id="Group" transform="translate(20.000000, 21.000000)">
			<g style="enable-background:new;">
				<path style="fill:#CCCCCC;" d="M153.02,8.543c0,1.769-0.479,3.119-1.439,4.055c-0.959,0.935-2.34,1.402-4.142,1.402h-2.966
					V3.292h3.281c1.664,0,2.959,0.462,3.881,1.384C152.559,5.6,153.02,6.889,153.02,8.543z M151.701,8.588
					c0-1.396-0.351-2.449-1.051-3.157c-0.701-0.708-1.742-1.062-3.124-1.062h-1.81v8.555h1.517c1.484,0,2.601-0.365,3.347-1.096
					C151.328,11.099,151.701,10.019,151.701,8.588z"/>
				<path style="fill:#CCCCCC;" d="M160.16,14l-0.241-1.143h-0.059c-0.4,0.503-0.8,0.844-1.198,1.021
					c-0.397,0.179-0.895,0.268-1.49,0.268c-0.795,0-1.42-0.205-1.871-0.615s-0.678-0.993-0.678-1.75c0-1.621,1.297-2.471,3.89-2.549
					l1.362-0.045V8.689c0-0.629-0.135-1.095-0.406-1.395c-0.271-0.301-0.705-0.451-1.301-0.451c-0.668,0-1.426,0.205-2.27,0.615
					l-0.374-0.93c0.396-0.215,0.829-0.383,1.3-0.506c0.471-0.121,0.943-0.183,1.418-0.183c0.957,0,1.666,0.212,2.127,0.638
					c0.461,0.424,0.692,1.105,0.692,2.043V14H160.16z M157.414,13.143c0.757,0,1.352-0.207,1.783-0.622s0.648-0.996,0.648-1.743
					v-0.725l-1.216,0.051c-0.967,0.034-1.664,0.185-2.091,0.45c-0.428,0.267-0.641,0.681-0.641,1.241
					c0,0.439,0.133,0.774,0.398,1.004S156.936,13.143,157.414,13.143z"/>
				<path style="fill:#CCCCCC;" d="M168.744,11.811c0,0.746-0.277,1.323-0.834,1.729s-1.338,0.607-2.344,0.607
					c-1.064,0-1.895-0.168-2.49-0.506v-1.127c0.385,0.195,0.799,0.349,1.241,0.461c0.441,0.112,0.868,0.168,1.278,0.168
					c0.635,0,1.123-0.101,1.465-0.304c0.342-0.202,0.512-0.511,0.512-0.927c0-0.312-0.135-0.579-0.406-0.802
					c-0.271-0.222-0.799-0.484-1.586-0.787c-0.746-0.278-1.277-0.521-1.593-0.729c-0.314-0.208-0.549-0.443-0.703-0.707
					c-0.153-0.264-0.23-0.579-0.23-0.944c0-0.654,0.267-1.171,0.798-1.55c0.533-0.378,1.263-0.567,2.19-0.567
					c0.864,0,1.709,0.176,2.534,0.527l-0.432,0.988c-0.807-0.331-1.536-0.498-2.19-0.498c-0.576,0-1.011,0.091-1.304,0.271
					s-0.439,0.43-0.439,0.747c0,0.215,0.055,0.398,0.165,0.55c0.109,0.151,0.286,0.295,0.53,0.432s0.713,0.335,1.406,0.594
					c0.953,0.347,1.596,0.695,1.931,1.047C168.577,10.836,168.744,11.278,168.744,11.811z"/>
				<path style="fill:#CCCCCC;" d="M176.215,14V8.807c0-0.653-0.148-1.143-0.446-1.465s-0.765-0.482-1.399-0.482
					c-0.844,0-1.461,0.229-1.85,0.688c-0.387,0.46-0.582,1.212-0.582,2.256V14h-1.215V2.604h1.215v3.449
					c0,0.416-0.02,0.76-0.059,1.033h0.074c0.238-0.386,0.579-0.689,1.021-0.912c0.441-0.222,0.945-0.333,1.512-0.333
					c0.982,0,1.719,0.233,2.209,0.699c0.49,0.467,0.736,1.208,0.736,2.224V14H176.215z"/>
				<path style="fill:#CCCCCC;" d="M183.664,5.841c1.055,0,1.873,0.36,2.457,1.08c0.584,0.721,0.875,1.739,0.875,3.058
					s-0.294,2.343-0.882,3.073c-0.589,0.729-1.405,1.095-2.45,1.095c-0.522,0-1-0.097-1.432-0.289
					c-0.433-0.193-0.795-0.489-1.088-0.891h-0.088L180.801,14h-0.872V2.604h1.216v2.769c0,0.62-0.02,1.177-0.059,1.67h0.059
					C181.711,6.241,182.551,5.841,183.664,5.841z M183.488,6.859c-0.83,0-1.428,0.237-1.795,0.714
					c-0.365,0.476-0.549,1.278-0.549,2.405c0,1.129,0.188,1.936,0.564,2.421c0.375,0.486,0.979,0.729,1.809,0.729
					c0.747,0,1.304-0.272,1.67-0.817c0.366-0.544,0.549-1.326,0.549-2.347c0-1.045-0.183-1.824-0.549-2.337
					S184.255,6.859,183.488,6.859z"/>
				<path style="fill:#CCCCCC;" d="M196.049,9.979c0,1.31-0.329,2.331-0.988,3.065c-0.659,0.735-1.57,1.103-2.732,1.103
					c-0.717,0-1.354-0.168-1.911-0.506c-0.557-0.336-0.986-0.82-1.289-1.449c-0.303-0.631-0.454-1.367-0.454-2.213
					c0-1.308,0.327-2.327,0.981-3.058c0.654-0.729,1.563-1.095,2.725-1.095c1.123,0,2.015,0.373,2.677,1.121
					C195.719,7.693,196.049,8.705,196.049,9.979z M189.934,9.979c0,1.025,0.205,1.808,0.615,2.344
					c0.41,0.538,1.014,0.807,1.809,0.807c0.797,0,1.4-0.268,1.813-0.803c0.413-0.534,0.619-1.316,0.619-2.348
					c0-1.02-0.206-1.795-0.619-2.325c-0.412-0.529-1.021-0.794-1.826-0.794c-0.797,0-1.396,0.261-1.803,0.783
					C190.137,8.165,189.934,8.944,189.934,9.979z"/>
				<path style="fill:#CCCCCC;" d="M203.117,14l-0.242-1.143h-0.059c-0.4,0.503-0.799,0.844-1.197,1.021
					c-0.398,0.179-0.895,0.268-1.49,0.268c-0.796,0-1.42-0.205-1.871-0.615c-0.452-0.41-0.678-0.993-0.678-1.75
					c0-1.621,1.297-2.471,3.889-2.549l1.363-0.045V8.689c0-0.629-0.136-1.095-0.407-1.395c-0.271-0.301-0.704-0.451-1.3-0.451
					c-0.669,0-1.426,0.205-2.271,0.615l-0.374-0.93c0.396-0.215,0.829-0.383,1.301-0.506c0.471-0.121,0.943-0.183,1.417-0.183
					c0.957,0,1.666,0.212,2.128,0.638c0.461,0.424,0.691,1.105,0.691,2.043V14H203.117z M200.371,13.143
					c0.756,0,1.351-0.207,1.783-0.622c0.432-0.415,0.648-0.996,0.648-1.743v-0.725l-1.217,0.051
					c-0.967,0.034-1.664,0.185-2.091,0.45c-0.427,0.267-0.641,0.681-0.641,1.241c0,0.439,0.133,0.774,0.399,1.004
					C199.52,13.028,199.893,13.143,200.371,13.143z"/>
				<path style="fill:#CCCCCC;" d="M210.186,5.826c0.355,0,0.676,0.029,0.959,0.088l-0.168,1.128
					c-0.332-0.073-0.625-0.11-0.879-0.11c-0.65,0-1.205,0.264-1.666,0.791c-0.463,0.527-0.693,1.185-0.693,1.971V14h-1.215V5.973
					h1.003l0.14,1.486h0.059c0.297-0.521,0.656-0.925,1.076-1.208S209.682,5.826,210.186,5.826z"/>
				<path style="fill:#CCCCCC;" d="M218.109,12.924h-0.065c-0.562,0.815-1.401,1.223-2.52,1.223c-1.05,0-1.866-0.359-2.45-1.076
					c-0.584-0.719-0.875-1.738-0.875-3.063c0-1.322,0.293-2.351,0.879-3.083s1.401-1.099,2.446-1.099
					c1.089,0,1.924,0.396,2.505,1.187h0.096l-0.052-0.579l-0.029-0.563V2.604h1.216V14h-0.988L218.109,12.924z M215.678,13.129
					c0.83,0,1.432-0.227,1.807-0.678c0.373-0.452,0.56-1.181,0.56-2.187v-0.257c0-1.137-0.189-1.949-0.567-2.435
					c-0.379-0.486-0.982-0.729-1.813-0.729c-0.713,0-1.26,0.277-1.637,0.832c-0.379,0.554-0.568,1.336-0.568,2.348
					c0,1.025,0.188,1.799,0.564,2.321C214.398,12.867,214.951,13.129,215.678,13.129z"/>
			</g>
			<path id="Line" style="fill:none;stroke:#585858;stroke-linecap:square;" d="M131.5,0.5v17.067"/>
			<path id="superblocks-logo-white" style="fill:#FFFFFF;" d="M23.52,5.454V15.4h-2.557v-1.665c-0.254,0.583-0.688,1.07-1.238,1.39
				c-0.568,0.339-1.224,0.509-1.968,0.509c-1.164,0-2.067-0.328-2.709-0.988c-0.643-0.659-0.964-1.589-0.964-2.789V5.454h2.618
				v5.854c0,0.796,0.166,1.393,0.497,1.791c0.331,0.398,0.829,0.597,1.491,0.597c0.703,0,1.248-0.246,1.634-0.735
				c0.386-0.489,0.579-1.191,0.579-2.105V5.455L23.52,5.454L23.52,5.454z M33.332,6.308c-1.04,0-1.886,0.816-1.886,1.819
				c0,1.003,0.846,1.82,1.886,1.82c1.039,0,1.885-0.816,1.885-1.82C35.218,7.124,34.372,6.308,33.332,6.308z M26.745,14.482h3.772
				V6.307h-3.772V14.482z M25.816,15.378L25.816,15.378V5.412h10.331v9.966H25.816z M35.218,14.482v-4.339
				c-0.522,0.455-1.193,0.704-1.885,0.701c-0.693,0.003-1.364-0.246-1.886-0.702v4.34H35.218z M92.888,15.694
				c-1.56,0-2.817-0.474-3.766-1.424c-0.951-0.95-1.425-2.217-1.425-3.801c0-1.571,0.479-2.835,1.436-3.791
				c0.957-0.956,2.209-1.434,3.757-1.434c1.263,0,2.291,0.324,3.085,0.973c0.794,0.647,1.266,1.542,1.416,2.681h-2.464
				c-0.109-0.576-0.34-1.015-0.692-1.316c-0.353-0.301-0.808-0.452-1.365-0.452c-0.802,0-1.429,0.298-1.883,0.894
				c-0.455,0.595-0.683,1.411-0.683,2.446c0,1.048,0.228,1.866,0.683,2.455c0.454,0.589,1.081,0.884,1.883,0.884
				c0.556,0,1.011-0.154,1.365-0.462c0.353-0.307,0.583-0.743,0.692-1.306h2.464c-0.149,1.139-0.621,2.033-1.415,2.681
				C95.179,15.369,94.151,15.694,92.888,15.694L92.888,15.694L92.888,15.694z M43.089,7.109c-0.692,0-1.259,0.2-1.7,0.599
				c-0.441,0.4-0.73,0.979-0.866,1.739h4.867c0-0.694-0.207-1.257-0.621-1.69C44.355,7.326,43.795,7.109,43.089,7.109z
				 M45.41,12.355h2.403c-0.217,1.035-0.743,1.85-1.578,2.446c-0.835,0.596-1.864,0.893-3.086,0.893
				c-1.56,0-2.823-0.474-3.787-1.424c-0.964-0.95-1.445-2.211-1.445-3.782c0-1.572,0.481-2.839,1.445-3.801
				c0.964-0.963,2.206-1.444,3.727-1.444c1.467,0,2.63,0.465,3.492,1.394c0.862,0.93,1.293,2.142,1.293,3.634v0.806h-7.432
				c0.081,0.891,0.353,1.575,0.814,2.052c0.462,0.479,1.093,0.717,1.894,0.717c0.569,0,1.045-0.124,1.425-0.374
				C44.955,13.225,45.233,12.853,45.41,12.355L45.41,12.355z M104.658,14.562v-3.006l3.115,3.005L104.658,14.562L104.658,14.562z
				 M104.658,10.288V6.387h3.772v7.54L104.658,10.288z M99.956,14.562V6.387h3.772v8.175H99.956z M99.026,15.458h10.332V5.491
				H99.027L99.026,15.458L99.026,15.458L99.026,15.458z M80.73,7.11c-0.829,0-1.473,0.294-1.935,0.884
				c-0.461,0.589-0.692,1.414-0.692,2.475c0,1.06,0.231,1.886,0.692,2.474c0.461,0.59,1.106,0.884,1.934,0.884
				c0.828,0,1.473-0.294,1.935-0.884c0.461-0.589,0.692-1.414,0.692-2.474c0-1.049-0.231-1.87-0.692-2.466
				C82.203,7.407,81.557,7.11,80.73,7.11z M80.73,5.244c1.561,0,2.824,0.478,3.787,1.434c0.964,0.956,1.446,2.22,1.446,3.792
				c0,1.584-0.479,2.852-1.436,3.8c-0.957,0.95-2.223,1.424-3.797,1.424c-1.575,0-2.841-0.474-3.797-1.424
				c-0.958-0.95-1.436-2.217-1.436-3.801c0-1.571,0.482-2.835,1.446-3.791C77.906,5.721,79.168,5.243,80.73,5.244L80.73,5.244z
				 M115.642,15.694c-1.425,0-2.562-0.284-3.411-0.855c-0.848-0.569-1.327-1.371-1.435-2.406h2.484
				c0.054,0.471,0.295,0.841,0.723,1.109c0.428,0.269,0.96,0.403,1.599,0.403c0.583,0,1.055-0.111,1.415-0.334
				c0.359-0.222,0.539-0.523,0.539-0.903c0-0.314-0.119-0.553-0.356-0.717c-0.239-0.164-0.649-0.298-1.233-0.403l-1.832-0.314
				c-1.005-0.171-1.752-0.492-2.24-0.963c-0.489-0.472-0.733-1.1-0.733-1.886c0-0.93,0.394-1.692,1.181-2.289
				c0.786-0.596,1.792-0.893,3.013-0.893c1.317,0,2.359,0.265,3.126,0.795c0.766,0.53,1.204,1.287,1.313,2.269h-2.382
				c-0.054-0.393-0.265-0.707-0.631-0.943c-0.367-0.235-0.836-0.354-1.406-0.354c-0.543,0-0.981,0.106-1.313,0.315
				c-0.333,0.21-0.499,0.491-0.499,0.845c0,0.314,0.115,0.554,0.346,0.717c0.231,0.164,0.645,0.298,1.242,0.403l2.016,0.334
				c0.937,0.157,1.643,0.481,2.118,0.973c0.474,0.491,0.712,1.136,0.712,1.935c0,0.93-0.411,1.69-1.232,2.279
				S116.905,15.694,115.642,15.694z M70.838,15.458h2.606V1h-2.606V15.458z M63.461,7.089c-0.815,0-1.454,0.285-1.915,0.855
				c-0.462,0.57-0.692,1.353-0.692,2.348v0.354c0,0.995,0.231,1.777,0.692,2.347c0.461,0.57,1.099,0.855,1.915,0.855
				c0.827,0,1.479-0.301,1.955-0.904c0.474-0.602,0.711-1.427,0.711-2.474c0-1.049-0.237-1.873-0.712-2.475
				S64.288,7.09,63.461,7.089L63.461,7.089z M64.193,15.694c-0.733,0-1.403-0.167-2.006-0.501c-0.605-0.334-1.042-0.776-1.314-1.326
				v1.591h-2.566V1h2.607v6.109c0.271-0.563,0.702-1.015,1.293-1.356c0.591-0.34,1.252-0.51,1.985-0.51
				c1.357,0,2.457,0.485,3.298,1.453c0.841,0.97,1.263,2.227,1.263,3.773c0,1.545-0.422,2.802-1.263,3.772
				C66.649,15.209,65.55,15.694,64.193,15.694z M55.777,5.302c0.149,0,0.292,0.007,0.427,0.02c0.136,0.013,0.252,0.033,0.347,0.059
				v2.318c-0.152-0.028-0.305-0.047-0.458-0.059c-0.179-0.014-0.359-0.02-0.539-0.02c-0.883,0-1.588,0.288-2.118,0.865
				c-0.529,0.576-0.794,1.363-0.794,2.358v4.616h-2.606v-9.98h2.566v2.24c0.244-0.759,0.644-1.352,1.201-1.778
				C54.359,5.515,55.016,5.302,55.777,5.302z M6.394,15.694c-1.887,0-3.394-0.39-4.52-1.169C0.746,13.746,0.121,12.643,0,11.215
				h2.606c0.082,0.825,0.445,1.457,1.089,1.896c0.645,0.439,1.517,0.658,2.617,0.658c0.923,0,1.666-0.194,2.229-0.58
				c0.563-0.386,0.845-0.914,0.845-1.582c0-0.524-0.186-0.933-0.56-1.228c-0.374-0.294-0.981-0.521-1.823-0.678L4.338,9.23
				C3.034,9.008,2.064,8.579,1.425,7.944C0.787,7.31,0.468,6.468,0.468,5.42c0-1.244,0.51-2.259,1.528-3.044
				c1.018-0.786,2.328-1.179,3.931-1.179c1.737,0,3.108,0.354,4.113,1.061c1.005,0.708,1.575,1.716,1.71,3.026H9.204
				C9.11,4.615,8.773,4.091,8.197,3.711c-0.578-0.38-1.328-0.569-2.251-0.569c-0.855,0-1.544,0.196-2.067,0.589
				C3.357,4.124,3.095,4.634,3.095,5.263c0,0.511,0.163,0.901,0.489,1.169C3.909,6.7,4.521,6.92,5.417,7.09l2.81,0.53
				c1.29,0.236,2.246,0.668,2.871,1.296c0.624,0.629,0.937,1.473,0.937,2.534c0,1.244-0.53,2.263-1.589,3.055
				C9.388,15.298,8.037,15.694,6.394,15.694z"/>
		</g>
	</g>
</g>
</svg>
